!!!COM: Beethoven
!!!OTL: 13 Variationen uber "Es war einmal ein alter Mann" aus "Das rote Kappchen" von K. Ditters von Dittersdorf
!!!Variation: Variation 9 e
**function	**harm	**kern	**kern
*	*	*clefF4	*clefG2
*	*	*k[f#c#g#]	*k[f#c#g#]
*M2/4	*M2/4	*M2/4	*M2/4
*A:	*A:	*A:	*A:
8T	8I	8r	8e
=363	=363	=363	=363
2T	2I	8AA 8C# 8E 8A	16aLL
.	.	.	16b
.	.	8r	16cc#
.	.	.	16ddJJ
.	.	4r	16eeLL
.	.	.	16ff#
.	.	.	16gg#
.	.	.	16aaJJ
=364	=364	=364	=364
2T	2V7b	(16ELL	(16bbLL
.	.	16G#	16gg#
.	.	16B	16ee
.	.	16dJJ	16ddJJ
.	.	16eLL	16bLL
.	.	16d	16g#
.	.	16B	16ee
.	.	16G#JJ	16ddJJ
=365	=365	=365	=365
2T	2I	8A)	16cc#LL)
.	.	.	16b
.	.	8r	16cc#
.	.	.	16ddJJ
.	.	4r	16eeLL
.	.	.	16ff#
.	.	.	16gg#
.	.	.	16aaJJ
=366	=366	=366	=366
2T	2V7b	(16ELL	(16bbLL
.	.	16G#	16gg#
.	.	16B	16ee
.	.	16dJJ	16ddJJ
.	.	16eLL	16bLL
.	.	16d	16g#
.	.	16B	16ee
.	.	16G#JJ	16ddJJ
=367	=367	=367	=367
8T	8I	8AL)	16cc#LL)
.	.	.	16b
8T	8vi	8F#J	16a
.	.	.	16cc#JJ
8P	8iib	8DL	16bLL
.	.	.	16dd
8D	8V	8EJ	16g#
.	.	.	16bJJ
=368	=368	=368	=368
4T	4I	8AA	16aLL
.	.	.	(16aa
.	.	8r	16gg#
.	.	.	16ff#JJ
4T	4I	16r	16eeLL
.	.	16f#LL	16dd
.	.	16e	16cc#
.	.	16d#JJ	16bJJ
=369	=369	=369	=369
4.T	4.I	16eLL	16cc#LL
.	.	16d	16dd
.	.	16c#	16ee
.	.	16BJJ	16ff#JJ
.	.	16c#LL	16eeLL
.	.	16d	16dd)
16D	16Cc	16e	16cc#'
16D	16V	16EJJ	16b'JJ
=370	=370	=370	=370
4T	4I	8A	16aLL
.	.	.	(16aa
.	.	8r	16gg#
.	.	.	16ff#JJ
4T	4I	16r	16eeLL
.	.	16F#LL	16dd
.	.	16E	16cc#
.	.	16D#JJ	16bJJ
=371	=371	=371	=371
4.T	4.I	16ELL	16cc#LL
.	.	16D	16dd
.	.	16C#	16ee
.	.	16BBJJ	16ff#JJ
.	.	16C#LL	16eeLL
.	.	16D	16dd)
16D	16Cc	16E	16cc#'
16D	16V	16EEJJ	16b'JJ
=372	=372	=372	=372
4.T	4.I	16AALL	4a
.	.	16EE	.
.	.	16CC#	.
.	.	16EEJJ	.
.	.	8AAA	8r
*-	*-	*-	*-
